X:1
T: Looney McTwolter
C:
R:Jig
Q:180
K:G
M:6/8
L:1/16
|:G6B6|A2G2A2 B2G2E2|D2E2F2 G2cde2|d2c2B2 A4G2|
G6B6|A2G2A2 B2G2E2|D2E2F2 G2cde2|d2c2B2 A4G2:|
|:B2c2d2 d2e2=f2|e2d2c2 B2A2G2|B2c2d2 d2e2=f2|e2=f2d2 g6|
G2B2d2 g2f2e2|d2c2B2 A4G2|D2E2F2 G4e2|1d2c2B2 A4G2:|2d2c2B2 A2G4||
